X:92
T:RVW2/2/92 Epsom Downs
C:Isaac Longhurst, Forest Green, Surrey, May 1904
L:1/8
Q:1/4=120
M:6/8
I:linebreak $
K:G
"^(" G | G2 G B2 c | d2 B G2 B | c2 c cde | d3 z z d |$ e2 c cde | d2 B G2 A | Bcd cBA | G3 z z B | 
c2 c cde |$ d3 z z d | e2 c cde | d2 B G2 A | Bcd cBA | G3- G2 |] 



